X: 2177
T: Şevkutarab Seyir
C: Erol Bingöl
O: Turkey
F: http://compmusic.upf.edu/node/140
N: sevkutarab--seyir--sofyan--1--erol_bingol
N: makam= sevkutarab
N: form= seyir
N: usul= sofyan = 4/4
M: 4/4
L: 1/16
K: C _1/4B _7/8d  
Q: 1/4=60
%%MIDI tuningsystem comma53
_2/4B4 c4 c4 _3/4d2e2  | _3/4d2c2 c2_2/4B2 c3B A4  | \
w:   |   | 
_2/4B2c2 A2B2 c2_3/4d2 B2d2  | c6G2 A2_2/4B2 c4  | 
w:   |   | 
c4 =d2e2 f4 e2d2  | c2=d4c2 _B2A2 B4  | \
w:   |   | 
A2_B2 c2B2 A4 G2A2  | G3F E2G2 F8  | 
w:   |   | 
|


